X:1
T:Title
%%score { ( 1 3 ) | 2 }
L:1/8
Q:1/4=93
M:6/8
K:G
V:1 treble nm="Grand Piano"
V:3 treble 
V:2 bass 
V:1
 A^GA =F=GA | [DG][D=F]D F3 | A^GA =FAc | dcA [EG]3 | A^GA =F=GA | [DG][DG][DA] [D_B]3 | %6
w: Arthur~Willis~Spooner * * * * *||||||
[M:7/8] z z2 c- c3 |[M:3/4] [Ec][EG]/[EA]/- [EA] =F3 | A4 z2 | c6 | G4 z2 | D6 | [EG]4 z2 | %13
w: |||||||
 [G_B]4 z2 | [_Bd]4 z2 | [Ac]6 | A4 z2 | c6 | G4 z2 | d6 | c4 z2 | c6 | _B4 z2 | =F6 |] %24
w: |||||||||||
V:2
 [=F,C=F][F,B,F][F,CF] [F,A,][F,_B,F][F,CF] | [_B,,_B,][B,,B,][B,,=F,] [F,A,C]3 | %2
 [=F,C=F][F,B,F][F,CF] [F,A,][K:treble][F,CF][F,A,F] | [_B,=F][A,CF][=F,CF][K:bass] [C,C]3 | %4
 [=F,C=F][F,B,F][F,CF] [F,A,][F,_B,F][F,CF] | [_B,,_B,][B,,G,][A,,F,] [G,,G,]3 | %6
[M:7/8] [^C,A,][C,A,][C,A,] [=C,A,] z z2 |[M:3/4] [C,G,][C,_B,]/[C,C]/- [C,C] [=F,A,]3 | %8
 [=F,C=F][F,C] [F,C][F,C] z2 | [=F,A,=F][F,A,] [F,A,][F,A,] z2 | %10
 [_B,,_B,][B,,B,] [B,,B,][B,,B,] z2 | [_B,,=F,_B,][B,,F,] [B,,F,] [B,,F,]3 | %12
 [C,C]C, C,C, [C,C][C,C] | [C,C]C, C,C,[K:treble] FG | [C,C]C, C,C, C,C, | =F,F, F, .F,3 | %16
 [=F,C=F][F,C] [F,C][F,C] z2 | [=F,A,=F][F,A,] [F,A,][F,A,] z2 | %18
 [_B,,_B,][B,,B,] [B,,B,][B,,B,] z2 | [B,,G,][B,,G,] [B,,G,] [B,,G,]3 | %20
 [C,A,][C,A,] [C,A,][C,A,] z2 | [C,A,][C,A,] [C,A,] [C,A,]3 | [C,C][C,C] [C,C][C,C] z2 | %23
 [=F,A,C][F,A,] [F,^G,] [F,A,]3 |] %24
V:3
 x6 | x6 | x6 | x6 | x6 | x6 |[M:7/8] [=FB][FB][FB] F z z2 |[M:3/4] x6 | z =F FF ^GA | z =F FF z2 | %10
 DD DD FG | z _B, B, B,3 | z C CC [^DF][EG] | z C CC A_B | z C CC [CAc][C^G=B] | C=F D C2 c | %16
 z =F FF ^GA | z =F FF z F | DD DD FG | =FF F F3 | =FF FF Bd | =FF F F3 | EE EE AG | z C B, C3 |] %24

